;FLAVOR:Marlin
;TIME:14970
;Filament used: 12.495m
;Layer height: 0.16
;MINX:75.59
;MINY:61.9
;MINZ:0.2
;MAXX:155.25
;MAXY:185.257
;MAXZ:32.8
;Generated with Cura_SteamEngine 4.8.0
M140 S65
M105
M190 S65
M104 S200
M105
M109 S200
M82 ;absolute extrusion mode
; Ender 3 Custom Start G-code
G92 E0 ; Reset Extruder
G28 ; Home all axes
G1 Z2.0 F3000 ; Move Z Axis up little to prevent scratching of Heat Bed
G1 X0.1 Y20 Z0.3 F5000.0 ; Move to start position
G1 X0.1 Y200.0 Z0.3 F1500.0 E15 ; Draw the first line
G1 X0.4 Y200.0 Z0.3 F5000.0 ; Move to side a little
G1 X0.4 Y20 Z0.3 F1500.0 E30 ; Draw the second line
G92 E0 ; Reset Extruder
G1 Z2.0 F3000 ; Move Z Axis up little to prevent scratching of Heat Bed
G1 X5 Y20 Z0.3 F5000.0 ; Move over to prevent blob squish
G92 E0
G92 E0
G1 F1500 E-6.5
;LAYER_COUNT:169
;LAYER:0
M107
G0 F6000 X80.727 Y63.617 Z0.2
;TYPE:SKIRT
G1 F1500 E0
G1 F1200 X80.988 Y63.315 E0.01328
G1 X81.297 Y63.007 E0.02779
G1 X81.319 Y62.988 E0.02875
G1 X81.662 Y62.732 E0.04299
G1 X81.996 Y62.518 E0.05618
G1 X82.364 Y62.317 E0.07013
G1 X82.388 Y62.306 E0.07101
G1 X82.79 Y62.155 E0.08529
G1 X83.177 Y62.041 E0.09871
G1 X83.784 Y61.929 E0.11924
G1 X84.261 Y61.9 E0.13513
G1 X150.769 Y61.902 E2.3472
G1 X151.202 Y61.933 E2.36164
G1 X151.593 Y61.99 E2.37478
G1 X152.012 Y62.083 E2.38905
G1 X152.039 Y62.091 E2.38999
G1 X152.428 Y62.236 E2.4038
G1 X152.791 Y62.401 E2.41706
G1 X153.294 Y62.691 E2.43637
G1 X153.533 Y62.877 E2.44644
G1 X153.835 Y63.138 E2.45972
G1 X154.143 Y63.447 E2.47423
G1 X154.162 Y63.469 E2.4752
G1 X154.418 Y63.812 E2.48943
G1 X154.632 Y64.146 E2.50263
G1 X154.833 Y64.514 E2.51657
G1 X154.844 Y64.538 E2.51745
G1 X154.994 Y64.938 E2.53166
G1 X155.108 Y65.324 E2.54505
G1 X155.221 Y65.932 E2.56561
G1 X155.25 Y66.409 E2.58151
G1 X155.248 Y118.619 E4.31802
G1 X155.217 Y119.052 E4.33246
G1 X155.16 Y119.443 E4.3456
G1 X155.08 Y119.819 E4.35839
G1 X155.073 Y119.844 E4.35925
G1 X154.915 Y120.277 E4.37458
G1 X154.749 Y120.642 E4.38792
G1 X154.459 Y121.144 E4.4072
G1 X154.273 Y121.383 E4.41727
G1 X154.012 Y121.685 E4.43055
G1 X153.703 Y121.993 E4.44506
G1 X153.681 Y122.012 E4.44603
G1 X153.338 Y122.268 E4.46026
G1 X153.004 Y122.482 E4.47346
G1 X152.636 Y122.683 E4.4874
G1 X152.612 Y122.694 E4.48828
G1 X152.21 Y122.845 E4.50256
G1 X151.823 Y122.959 E4.51598
G1 X151.216 Y123.071 E4.53651
G1 X150.739 Y123.1 E4.55241
G1 X84.231 Y123.098 E6.76447
G1 X83.798 Y123.067 E6.77891
G1 X83.407 Y123.01 E6.79205
G1 X82.988 Y122.917 E6.80633
G1 X82.961 Y122.909 E6.80726
G1 X82.572 Y122.764 E6.82107
G1 X82.209 Y122.599 E6.83433
G1 X81.706 Y122.309 E6.85364
G1 X81.466 Y122.122 E6.86376
G1 X81.162 Y121.859 E6.87713
G1 X80.839 Y121.533 E6.8924
G1 X80.822 Y121.513 E6.89327
G1 X80.582 Y121.188 E6.90671
G1 X80.368 Y120.854 E6.9199
G1 X80.17 Y120.493 E6.9336
G1 X80.158 Y120.467 E6.93455
G1 X80.003 Y120.055 E6.94919
G1 X79.89 Y119.67 E6.96253
G1 X79.779 Y119.068 E6.98289
G1 X79.75 Y118.591 E6.99879
G1 X79.752 Y66.38 E8.73533
G1 X79.784 Y65.946 E8.74981
G1 X79.841 Y65.556 E8.76292
G1 X79.92 Y65.181 E8.77566
G1 X79.927 Y65.156 E8.77653
G1 X80.085 Y64.723 E8.79186
G1 X80.251 Y64.358 E8.80519
G1 X80.541 Y63.856 E8.82448
G1 X80.727 Y63.617 E8.83455
G0 F6000 X81.03 Y63.879
G1 F1200 X81.291 Y63.577 E8.84782
G1 X81.559 Y63.309 E8.86043
G1 X81.581 Y63.29 E8.8614
G1 X81.877 Y63.069 E8.87368
G1 X82.211 Y62.855 E8.88688
G1 X82.531 Y62.68 E8.89901
G1 X82.555 Y62.669 E8.89989
G1 X82.903 Y62.539 E8.91224
G1 X83.29 Y62.425 E8.92566
G1 X83.816 Y62.327 E8.94346
G1 X84.261 Y62.3 E8.95828
G1 X150.769 Y62.302 E11.17035
G1 X151.144 Y62.329 E11.18285
G1 X151.535 Y62.386 E11.196
G1 X151.899 Y62.466 E11.20839
G1 X151.926 Y62.474 E11.20933
G1 X152.263 Y62.6 E11.22129
G1 X152.626 Y62.765 E11.23456
G1 X153.061 Y63.016 E11.25126
G1 X153.271 Y63.18 E11.26012
G1 X153.573 Y63.441 E11.2734
G1 X153.841 Y63.709 E11.28601
G1 X153.86 Y63.731 E11.28697
G1 X154.081 Y64.027 E11.29926
G1 X154.295 Y64.361 E11.31245
G1 X154.47 Y64.681 E11.32458
G1 X154.481 Y64.705 E11.32546
G1 X154.611 Y65.052 E11.33779
G1 X154.725 Y65.438 E11.35117
G1 X154.823 Y65.964 E11.36897
G1 X154.85 Y66.409 E11.3838
G1 X154.848 Y118.619 E13.12031
G1 X154.821 Y118.994 E13.13281
G1 X154.764 Y119.385 E13.14595
G1 X154.695 Y119.711 E13.15704
G1 X154.688 Y119.736 E13.1579
G1 X154.551 Y120.111 E13.17118
G1 X154.385 Y120.476 E13.18452
G1 X154.134 Y120.911 E13.20122
G1 X153.97 Y121.121 E13.21008
G1 X153.709 Y121.423 E13.22336
G1 X153.441 Y121.691 E13.23596
G1 X153.419 Y121.71 E13.23693
G1 X153.123 Y121.931 E13.24922
G1 X152.789 Y122.145 E13.26241
G1 X152.469 Y122.32 E13.27454
G1 X152.445 Y122.331 E13.27542
G1 X152.097 Y122.461 E13.28778
G1 X151.71 Y122.575 E13.30119
G1 X151.184 Y122.673 E13.31899
G1 X150.739 Y122.7 E13.33382
G1 X84.231 Y122.698 E15.54588
G1 X83.856 Y122.671 E15.55839
G1 X83.465 Y122.614 E15.57153
G1 X83.101 Y122.534 E15.58393
G1 X83.074 Y122.526 E15.58486
G1 X82.737 Y122.4 E15.59683
G1 X82.374 Y122.235 E15.61009
G1 X81.939 Y121.984 E15.62679
G1 X81.728 Y121.819 E15.6357
G1 X81.424 Y121.556 E15.64907
G1 X81.144 Y121.274 E15.66229
G1 X81.127 Y121.254 E15.66316
G1 X80.919 Y120.973 E15.67479
G1 X80.705 Y120.639 E15.68799
G1 X80.533 Y120.326 E15.69986
G1 X80.521 Y120.3 E15.70082
G1 X80.387 Y119.942 E15.71353
G1 X80.274 Y119.557 E15.72688
G1 X80.178 Y119.035 E15.74453
G1 X80.15 Y118.591 E15.75933
G1 X80.152 Y66.38 E17.49587
G1 X80.179 Y66.004 E17.50841
G1 X80.236 Y65.614 E17.52152
G1 X80.305 Y65.289 E17.53257
G1 X80.312 Y65.264 E17.53343
G1 X80.449 Y64.889 E17.54671
G1 X80.615 Y64.524 E17.56005
G1 X80.866 Y64.089 E17.57675
G1 X81.03 Y63.879 E17.58561
G0 F6000 X81.332 Y64.14
G1 F1200 X81.593 Y63.838 E17.59889
G1 X81.82 Y63.612 E17.60954
G1 X81.842 Y63.593 E17.61051
G1 X82.093 Y63.406 E17.62092
G1 X82.427 Y63.192 E17.63411
G1 X82.697 Y63.044 E17.64435
G1 X82.721 Y63.033 E17.64523
G1 X83.016 Y62.923 E17.6557
G1 X83.403 Y62.809 E17.66912
G1 X83.848 Y62.726 E17.68418
G1 X84.261 Y62.7 E17.69794
G1 X150.769 Y62.702 E19.91001
G1 X151.086 Y62.725 E19.92058
G1 X151.477 Y62.782 E19.93372
G1 X151.785 Y62.85 E19.94421
G1 X151.812 Y62.858 E19.94515
G1 X152.097 Y62.964 E19.95526
G1 X152.46 Y63.129 E19.96852
G1 X152.829 Y63.342 E19.9827
G1 X153.01 Y63.482 E19.99031
G1 X153.312 Y63.743 E20.00358
G1 X153.538 Y63.97 E20.01424
G1 X153.557 Y63.992 E20.0152
G1 X153.744 Y64.243 E20.02561
G1 X153.958 Y64.577 E20.03881
G1 X154.106 Y64.847 E20.04905
G1 X154.117 Y64.871 E20.04993
G1 X154.227 Y65.165 E20.06037
G1 X154.341 Y65.551 E20.07375
G1 X154.424 Y65.997 E20.08884
G1 X154.45 Y66.409 E20.10257
G1 X154.448 Y118.619 E21.83908
G1 X154.425 Y118.936 E21.84965
G1 X154.368 Y119.327 E21.8628
G1 X154.31 Y119.603 E21.87218
G1 X154.303 Y119.628 E21.87304
G1 X154.187 Y119.946 E21.8843
G1 X154.021 Y120.311 E21.89764
G1 X153.808 Y120.679 E21.91178
G1 X153.668 Y120.86 E21.91939
G1 X153.407 Y121.162 E21.93266
G1 X153.18 Y121.388 E21.94332
G1 X153.158 Y121.407 E21.94429
G1 X152.907 Y121.594 E21.9547
G1 X152.573 Y121.808 E21.96789
G1 X152.303 Y121.956 E21.97813
G1 X152.279 Y121.967 E21.97901
G1 X151.984 Y122.077 E21.98948
G1 X151.597 Y122.191 E22.0029
G1 X151.152 Y122.274 E22.01795
G1 X150.739 Y122.3 E22.03172
G1 X84.231 Y122.298 E24.24378
G1 X83.914 Y122.275 E24.25435
G1 X83.523 Y122.218 E24.2675
G1 X83.215 Y122.15 E24.27799
G1 X83.188 Y122.142 E24.27892
G1 X82.903 Y122.036 E24.28904
G1 X82.54 Y121.871 E24.3023
G1 X82.171 Y121.658 E24.31647
G1 X81.99 Y121.517 E24.3241
G1 X81.686 Y121.254 E24.33747
G1 X81.449 Y121.015 E24.34867
G1 X81.432 Y120.995 E24.34954
G1 X81.256 Y120.757 E24.35938
G1 X81.042 Y120.423 E24.37258
G1 X80.896 Y120.158 E24.38264
G1 X80.884 Y120.132 E24.38359
G1 X80.771 Y119.83 E24.39432
G1 X80.658 Y119.445 E24.40766
G1 X80.576 Y119.003 E24.42262
G1 X80.55 Y118.591 E24.43635
G1 X80.552 Y66.38 E26.17289
G1 X80.575 Y66.062 E26.18349
G1 X80.632 Y65.672 E26.1966
G1 X80.69 Y65.397 E26.20595
G1 X80.697 Y65.372 E26.20682
G1 X80.813 Y65.054 E26.21807
G1 X80.979 Y64.689 E26.23141
G1 X81.192 Y64.321 E26.24555
G1 X81.332 Y64.14 E26.25316
G0 F6000 X81.635 Y64.402
G1 F1200 X81.896 Y64.1 E26.26644
G1 X82.081 Y63.915 E26.27514
G1 X82.103 Y63.896 E26.27611
G1 X82.309 Y63.742 E26.28466
G1 X82.643 Y63.528 E26.29786
G1 X82.864 Y63.408 E26.30622
G1 X82.888 Y63.397 E26.3071
G1 X83.129 Y63.306 E26.31567
G1 X83.516 Y63.192 E26.32908
G1 X83.881 Y63.125 E26.34143
G1 X84.261 Y63.1 E26.35409
G1 X150.769 Y63.102 E28.56616
G1 X151.029 Y63.121 E28.57483
G1 X151.42 Y63.178 E28.58797
G1 X151.671 Y63.233 E28.59652
G1 X151.932 Y63.328 E28.60576
G1 X152.295 Y63.493 E28.61902
G1 X152.596 Y63.667 E28.63058
G1 X152.748 Y63.785 E28.63698
G1 X153.05 Y64.046 E28.65026
G1 X153.235 Y64.231 E28.65896
G1 X153.254 Y64.253 E28.65993
G1 X153.408 Y64.459 E28.66848
G1 X153.622 Y64.793 E28.68167
G1 X153.742 Y65.014 E28.69004
G1 X153.753 Y65.038 E28.69092
G1 X153.843 Y65.278 E28.69944
G1 X153.957 Y65.664 E28.71283
G1 X154.025 Y66.029 E28.72518
G1 X154.05 Y66.409 E28.73784
G1 X154.048 Y118.619 E30.47436
G1 X154.029 Y118.879 E30.48303
G1 X153.972 Y119.27 E30.49617
G1 X153.917 Y119.52 E30.50468
G1 X153.823 Y119.78 E30.51388
G1 X153.657 Y120.145 E30.52721
G1 X153.483 Y120.446 E30.53878
G1 X153.365 Y120.598 E30.54518
G1 X153.104 Y120.9 E30.55845
G1 X152.919 Y121.085 E30.56716
G1 X152.897 Y121.104 E30.56812
G1 X152.691 Y121.258 E30.57668
G1 X152.357 Y121.472 E30.58987
G1 X152.136 Y121.592 E30.59823
G1 X152.112 Y121.603 E30.59911
G1 X151.871 Y121.694 E30.60768
G1 X151.484 Y121.808 E30.6211
G1 X151.119 Y121.875 E30.63344
G1 X150.739 Y121.9 E30.64611
G1 X84.231 Y121.898 E32.85817
G1 X83.971 Y121.879 E32.86684
G1 X83.58 Y121.822 E32.87999
G1 X83.329 Y121.767 E32.88853
G1 X83.068 Y121.672 E32.89777
G1 X82.705 Y121.507 E32.91103
G1 X82.404 Y121.333 E32.9226
G1 X82.251 Y121.214 E32.92904
G1 X81.947 Y120.951 E32.94241
G1 X81.754 Y120.756 E32.95154
G1 X81.592 Y120.541 E32.96049
G1 X81.378 Y120.207 E32.97369
G1 X81.248 Y119.964 E32.98285
G1 X81.155 Y119.717 E32.99163
G1 X81.042 Y119.332 E33.00498
G1 X80.975 Y118.971 E33.01719
G1 X80.95 Y118.591 E33.02985
G1 X80.952 Y66.38 E34.7664
G1 X80.971 Y66.12 E34.77507
G1 X81.028 Y65.73 E34.78818
G1 X81.083 Y65.48 E34.79669
G1 X81.177 Y65.22 E34.80589
G1 X81.343 Y64.855 E34.81922
G1 X81.517 Y64.554 E34.83079
G1 X81.635 Y64.402 E34.83719
G0 F6000 X81.938 Y64.664
G1 F1200 X82.199 Y64.362 E34.85046
G1 X82.525 Y64.079 E34.86482
G1 X82.859 Y63.865 E34.87802
G1 X83.242 Y63.69 E34.89202
G1 X83.629 Y63.576 E34.90544
G1 X83.913 Y63.524 E34.91504
G1 X84.261 Y63.5 E34.92664
G1 X150.769 Y63.502 E37.13871
G1 X150.971 Y63.517 E37.14545
G1 X151.362 Y63.574 E37.15859
G1 X151.766 Y63.692 E37.17259
G1 X152.129 Y63.857 E37.18585
G1 X152.364 Y63.993 E37.19488
G1 X152.486 Y64.088 E37.20002
G1 X152.788 Y64.349 E37.2133
G1 X153.071 Y64.675 E37.22766
G1 X153.285 Y65.009 E37.24085
G1 X153.46 Y65.391 E37.25483
G1 X153.574 Y65.777 E37.26821
G1 X153.626 Y66.061 E37.27782
G1 X153.65 Y66.409 E37.28942
G1 X153.648 Y118.619 E39.02593
G1 X153.633 Y118.821 E39.03267
G1 X153.576 Y119.212 E39.04581
G1 X153.458 Y119.615 E39.05978
G1 X153.292 Y119.98 E39.07311
G1 X153.157 Y120.214 E39.0821
G1 X153.062 Y120.336 E39.08724
G1 X152.801 Y120.638 E39.10052
G1 X152.475 Y120.921 E39.11487
G1 X152.141 Y121.135 E39.12807
G1 X151.758 Y121.31 E39.14207
G1 X151.371 Y121.424 E39.15549
G1 X151.087 Y121.476 E39.16509
G1 X150.739 Y121.5 E39.1767
G1 X84.231 Y121.498 E41.38876
G1 X84.029 Y121.483 E41.3955
G1 X83.638 Y121.426 E41.40864
G1 X83.234 Y121.308 E41.42264
G1 X82.871 Y121.143 E41.4359
G1 X82.636 Y121.007 E41.44493
G1 X82.513 Y120.912 E41.4501
G1 X82.209 Y120.649 E41.46347
G1 X81.929 Y120.325 E41.47771
G1 X81.715 Y119.991 E41.49091
G1 X81.539 Y119.604 E41.50505
G1 X81.426 Y119.219 E41.51839
G1 X81.374 Y118.938 E41.5279
G1 X81.35 Y118.591 E41.53947
G1 X81.352 Y66.38 E43.27601
G1 X81.367 Y66.178 E43.28275
G1 X81.424 Y65.788 E43.29586
G1 X81.542 Y65.385 E43.30982
G1 X81.708 Y65.02 E43.32316
G1 X81.843 Y64.786 E43.33215
G1 X81.938 Y64.664 E43.33729
G0 F6000 X82.24 Y64.925
G1 F1200 X82.501 Y64.623 E43.35057
G1 X82.741 Y64.416 E43.36111
G1 X83.075 Y64.202 E43.3743
G1 X83.355 Y64.074 E43.38454
G1 X83.742 Y63.96 E43.39796
G1 X84.181 Y63.903 E43.41268
G1 X84.261 Y63.9 E43.41534
G1 X150.769 Y63.902 E45.62741
G1 X150.913 Y63.912 E45.63221
G1 X151.304 Y63.969 E45.64535
G1 X151.601 Y64.057 E45.65566
G1 X151.964 Y64.222 E45.66892
G1 X152.225 Y64.39 E45.67924
G1 X152.527 Y64.651 E45.69252
G1 X152.734 Y64.891 E45.70306
G1 X152.948 Y65.225 E45.71625
G1 X153.076 Y65.505 E45.72649
G1 X153.19 Y65.891 E45.73988
G1 X153.247 Y66.328 E45.75454
G1 X153.25 Y66.409 E45.75723
G1 X153.248 Y118.619 E47.49374
G1 X153.238 Y118.763 E47.49855
G1 X153.181 Y119.154 E47.51169
G1 X153.094 Y119.449 E47.52192
G1 X152.928 Y119.814 E47.53525
G1 X152.76 Y120.075 E47.54558
G1 X152.499 Y120.377 E47.55885
G1 X152.259 Y120.584 E47.56939
G1 X151.925 Y120.798 E47.58259
G1 X151.645 Y120.926 E47.59283
G1 X151.258 Y121.04 E47.60625
G1 X150.819 Y121.097 E47.62097
G1 X150.739 Y121.1 E47.62363
G1 X84.231 Y121.098 E49.8357
G1 X84.087 Y121.088 E49.8405
G1 X83.696 Y121.031 E49.85364
G1 X83.399 Y120.943 E49.86394
G1 X83.036 Y120.778 E49.87721
G1 X82.775 Y120.609 E49.88755
G1 X82.471 Y120.346 E49.90092
G1 X82.266 Y120.109 E49.91134
G1 X82.052 Y119.775 E49.92453
G1 X81.922 Y119.492 E49.93489
G1 X81.809 Y119.107 E49.94824
G1 X81.753 Y118.672 E49.96282
G1 X81.75 Y118.591 E49.96552
G1 X81.752 Y66.38 E51.70207
G1 X81.763 Y66.235 E51.7069
G1 X81.82 Y65.845 E51.72001
G1 X81.906 Y65.551 E51.7302
G1 X82.072 Y65.186 E51.74354
G1 X82.24 Y64.925 E51.75386
G0 F6000 X82.543 Y65.187
G1 F1200 X82.804 Y64.885 E51.76714
G1 X82.956 Y64.753 E51.77383
G1 X83.29 Y64.539 E51.78702
G1 X83.468 Y64.457 E51.79354
G1 X83.855 Y64.343 E51.80696
G1 X84.213 Y64.302 E51.81895
G1 X84.261 Y64.3 E51.82054
G1 X150.769 Y64.302 E54.03261
G1 X150.856 Y64.308 E54.03551
G1 X151.247 Y64.365 E54.04865
G1 X151.435 Y64.421 E54.05518
G1 X151.798 Y64.586 E54.06844
G1 X151.963 Y64.693 E54.07498
G1 X152.265 Y64.954 E54.08826
G1 X152.397 Y65.106 E54.09495
G1 X152.611 Y65.44 E54.10814
G1 X152.692 Y65.618 E54.11465
G1 X152.806 Y66.004 E54.12804
G1 X152.848 Y66.361 E54.13999
G1 X152.85 Y66.409 E54.14159
G1 X152.848 Y118.619 E55.8781
G1 X152.842 Y118.706 E55.881
G1 X152.785 Y119.097 E55.89414
G1 X152.73 Y119.283 E55.9006
G1 X152.564 Y119.648 E55.91393
G1 X152.457 Y119.813 E55.92047
G1 X152.196 Y120.115 E55.93375
G1 X152.044 Y120.247 E55.94044
G1 X151.71 Y120.461 E55.95364
G1 X151.532 Y120.543 E55.96016
G1 X151.145 Y120.657 E55.97357
G1 X150.787 Y120.698 E55.98556
G1 X150.739 Y120.7 E55.98716
G1 X84.231 Y120.698 E58.19922
G1 X84.144 Y120.692 E58.20212
G1 X83.753 Y120.635 E58.21527
G1 X83.565 Y120.579 E58.22179
G1 X83.202 Y120.414 E58.23505
G1 X83.036 Y120.307 E58.24162
G1 X82.732 Y120.044 E58.25499
G1 X82.603 Y119.894 E58.26157
G1 X82.389 Y119.56 E58.27476
G1 X82.306 Y119.379 E58.28139
G1 X82.193 Y118.994 E58.29473
G1 X82.152 Y118.64 E58.30658
G1 X82.15 Y118.591 E58.30822
G1 X82.152 Y66.38 E60.04476
G1 X82.158 Y66.293 E60.04766
G1 X82.215 Y65.903 E60.06077
G1 X82.27 Y65.717 E60.06722
G1 X82.436 Y65.352 E60.08056
G1 X82.543 Y65.187 E60.0871
G0 F6000 X82.846 Y65.448
G1 F1200 X83.107 Y65.146 E60.10038
G1 X83.172 Y65.09 E60.10323
G1 X83.506 Y64.876 E60.11642
G1 X83.581 Y64.841 E60.11918
G1 X83.968 Y64.727 E60.13259
G1 X84.245 Y64.701 E60.14185
G1 X150.769 Y64.702 E62.35444
G1 X150.798 Y64.704 E62.35541
G1 X151.189 Y64.761 E62.36855
G1 X151.27 Y64.785 E62.37136
G1 X151.633 Y64.95 E62.38463
G1 X151.702 Y64.996 E62.38738
G1 X152.004 Y65.257 E62.40066
G1 X152.06 Y65.322 E62.40351
G1 X152.274 Y65.656 E62.41671
G1 X152.309 Y65.731 E62.41946
G1 X152.423 Y66.117 E62.43285
G1 X152.449 Y66.393 E62.44207
G1 X152.448 Y118.619 E64.17911
G1 X152.446 Y118.648 E64.18008
G1 X152.384 Y119.064 E64.19407
G1 X152.366 Y119.118 E64.19596
G1 X152.2 Y119.483 E64.2093
G1 X152.154 Y119.552 E64.21205
G1 X151.893 Y119.854 E64.22533
G1 X151.828 Y119.91 E64.22818
G1 X151.494 Y120.124 E64.24138
G1 X151.419 Y120.159 E64.24413
G1 X151.032 Y120.273 E64.25755
G1 X150.755 Y120.299 E64.2668
G1 X84.231 Y120.298 E66.4794
