;FLAVOR:Marlin
;TIME:11394
;Filament used: 9.73287m
;Layer height: 0.16
;MINX:29.089
;MINY:44.748
;MINZ:0.2
;MAXX:108.749
;MAXY:106.948
;MAXZ:32.88
;Generated with Cura_SteamEngine 4.8.0
M140 S65
M105
M190 S65
M104 S200
M105
M109 S200
M82 ;absolute extrusion mode
; Ender 3 Custom Start G-code
G92 E0 ; Reset Extruder
G28 ; Home all axes
G1 Z2.0 F3000 ; Move Z Axis up little to prevent scratching of Heat Bed
G1 X0.1 Y20 Z0.3 F5000.0 ; Move to start position
G1 X0.1 Y200.0 Z0.3 F1500.0 E15 ; Draw the first line
G1 X0.4 Y200.0 Z0.3 F5000.0 ; Move to side a little
G1 X0.4 Y20 Z0.3 F1500.0 E30 ; Draw the second line
G92 E0 ; Reset Extruder
G1 Z2.0 F3000 ; Move Z Axis up little to prevent scratching of Heat Bed
G1 X5 Y20 Z0.3 F5000.0 ; Move over to prevent blob squish
G92 E0
G92 E0
G1 F1500 E-6.5
;LAYER_COUNT:169
;LAYER:0
M107
G0 F6000 X34.915 Y45.753 Z0.2
;TYPE:SKIRT
G1 F1500 E0
G1 F1200 X35.237 Y45.522 E0.01318
G1 X35.499 Y45.359 E0.02344
G1 X35.762 Y45.213 E0.03345
G1 X36.113 Y45.064 E0.04613
G1 X36.413 Y44.959 E0.0567
G1 X36.696 Y44.876 E0.06651
G1 X37.085 Y44.805 E0.07966
G1 X37.419 Y44.767 E0.09084
G1 X37.758 Y44.748 E0.10214
G1 X104.25 Y44.748 E2.31367
G1 X104.591 Y44.767 E2.32503
G1 X104.914 Y44.804 E2.33584
G1 X105.321 Y44.88 E2.34961
G1 X105.589 Y44.96 E2.35892
G1 X105.89 Y45.066 E2.36953
G1 X106.254 Y45.222 E2.3827
G1 X106.495 Y45.357 E2.39189
G1 X106.759 Y45.521 E2.40223
G1 X107.288 Y45.939 E2.42465
G1 X107.524 Y46.173 E2.4357
G1 X107.753 Y46.427 E2.44708
G1 X107.964 Y46.721 E2.45912
G1 X108.132 Y46.988 E2.46961
G1 X108.286 Y47.264 E2.48012
G1 X108.435 Y47.617 E2.49286
G1 X108.546 Y47.935 E2.50407
G1 X108.697 Y48.608 E2.52701
G1 X108.732 Y48.938 E2.53804
G1 X108.749 Y49.254 E2.54857
G1 X108.748 Y102.461 E4.31824
G1 X108.728 Y102.805 E4.3297
G1 X108.692 Y103.117 E4.34015
G1 X108.617 Y103.521 E4.35381
G1 X108.539 Y103.782 E4.36287
G1 X108.436 Y104.077 E4.37327
G1 X108.277 Y104.45 E4.38675
G1 X108.134 Y104.704 E4.39645
G1 X107.965 Y104.973 E4.40701
G1 X107.756 Y105.266 E4.41899
G1 X107.534 Y105.513 E4.43003
G1 X107.315 Y105.732 E4.44033
G1 X107.07 Y105.952 E4.45128
G1 X106.776 Y106.163 E4.46332
G1 X106.509 Y106.331 E4.47381
G1 X106.233 Y106.485 E4.48432
G1 X105.88 Y106.634 E4.49707
G1 X105.562 Y106.745 E4.50827
G1 X104.887 Y106.897 E4.53128
G1 X104.554 Y106.932 E4.54242
G1 X104.24 Y106.948 E4.55288
G1 X37.736 Y106.947 E6.76481
G1 X37.392 Y106.927 E6.77627
G1 X37.08 Y106.891 E6.78672
G1 X36.676 Y106.816 E6.80038
G1 X36.413 Y106.737 E6.80952
G1 X36.116 Y106.633 E6.81998
G1 X35.745 Y106.475 E6.83339
G1 X35.489 Y106.331 E6.84316
G1 X35.222 Y106.163 E6.85366
G1 X34.912 Y105.939 E6.86638
G1 X34.674 Y105.723 E6.87707
G1 X34.44 Y105.487 E6.88812
G1 X34.022 Y104.958 E6.91054
G1 X33.858 Y104.694 E6.92088
G1 X33.713 Y104.433 E6.93081
G1 X33.564 Y104.08 E6.94356
G1 X33.46 Y103.782 E6.95405
G1 X33.377 Y103.501 E6.9638
G1 X33.306 Y103.114 E6.97689
G1 X33.268 Y102.782 E6.988
G1 X33.249 Y102.441 E6.99936
G1 X33.25 Y68.553 E8.12648
G1 X33.098 Y68.553 E8.13153
G1 X32.61 Y68.513 E8.14782
G1 X32.135 Y68.394 E8.16411
G1 X31.686 Y68.2 E8.18038
G1 X31.333 Y67.979 E8.19423
G1 X30.603 Y67.448 E8.22425
G1 X30.232 Y67.129 E8.24052
G1 X29.918 Y66.753 E8.25682
G1 X29.669 Y66.332 E8.27309
G1 X29.515 Y65.951 E8.28675
G1 X29.236 Y65.094 E8.31673
G1 X29.123 Y64.617 E8.33303
G1 X29.089 Y64.129 E8.34931
G1 X29.135 Y63.642 E8.36557
G1 X29.236 Y63.236 E8.37949
G1 X29.515 Y62.379 E8.40947
G1 X29.704 Y61.928 E8.42573
G1 X29.964 Y61.513 E8.44202
G1 X30.288 Y61.146 E8.4583
G1 X30.603 Y60.882 E8.47197
G1 X31.333 Y60.351 E8.502
G1 X31.751 Y60.096 E8.51828
G1 X32.205 Y59.913 E8.53456
G1 X32.683 Y59.806 E8.55085
G1 X33.098 Y59.777 E8.56469
G1 X33.25 Y59.777 E8.56975
G1 X33.25 Y49.231 E8.92051
G1 X33.27 Y48.882 E8.93213
G1 X33.306 Y48.575 E8.94241
G1 X33.381 Y48.176 E8.95592
G1 X33.46 Y47.91 E8.96515
G1 X33.565 Y47.611 E8.97569
G1 X33.723 Y47.243 E8.98901
G1 X33.858 Y47.002 E8.99819
G1 X34.022 Y46.738 E9.00853
G1 X34.435 Y46.213 E9.03075
G1 X34.67 Y45.975 E9.04187
G1 X34.915 Y45.753 E9.05287
G0 F6000 X35.169 Y46.062
G1 F1200 X35.449 Y45.861 E9.06433
G1 X35.711 Y45.698 E9.0746
G1 X35.941 Y45.57 E9.08335
G1 X36.245 Y45.442 E9.09432
G1 X36.545 Y45.337 E9.10489
G1 X36.793 Y45.264 E9.11349
G1 X37.13 Y45.203 E9.12488
G1 X37.464 Y45.165 E9.13606
G1 X37.758 Y45.148 E9.14586
G1 X104.25 Y45.148 E11.35739
G1 X104.546 Y45.165 E11.36725
G1 X104.869 Y45.202 E11.37807
G1 X105.224 Y45.268 E11.39008
G1 X105.457 Y45.338 E11.39817
G1 X105.758 Y45.444 E11.40878
G1 X106.075 Y45.579 E11.42024
G1 X106.284 Y45.696 E11.42821
G1 X106.548 Y45.86 E11.43854
G1 X107.007 Y46.223 E11.45801
G1 X107.243 Y46.457 E11.46906
G1 X107.443 Y46.679 E11.479
G1 X107.626 Y46.934 E11.48944
G1 X107.794 Y47.201 E11.49993
G1 X107.929 Y47.443 E11.50915
G1 X108.058 Y47.749 E11.52019
G1 X108.169 Y48.067 E11.5314
G1 X108.299 Y48.65 E11.55126
G1 X108.334 Y48.98 E11.5623
G1 X108.349 Y49.254 E11.57143
G1 X108.348 Y102.461 E13.3411
G1 X108.331 Y102.759 E13.35103
G1 X108.295 Y103.071 E13.36147
G1 X108.229 Y103.424 E13.37342
G1 X108.162 Y103.65 E13.38126
G1 X108.059 Y103.945 E13.39165
G1 X107.92 Y104.271 E13.40344
G1 X107.796 Y104.491 E13.41184
G1 X107.627 Y104.76 E13.4224
G1 X107.443 Y105.016 E13.43289
G1 X107.251 Y105.23 E13.44245
G1 X107.032 Y105.449 E13.45275
G1 X106.818 Y105.642 E13.46234
G1 X106.563 Y105.825 E13.47278
G1 X106.296 Y105.993 E13.48327
G1 X106.054 Y106.128 E13.49248
G1 X105.748 Y106.257 E13.50353
G1 X105.43 Y106.368 E13.51473
G1 X104.845 Y106.499 E13.53467
G1 X104.512 Y106.534 E13.54581
G1 X104.24 Y106.548 E13.55487
G1 X37.736 Y106.547 E15.7668
G1 X37.438 Y106.53 E15.77673
G1 X37.126 Y106.494 E15.78717
G1 X36.773 Y106.428 E15.79912
G1 X36.545 Y106.36 E15.80703
G1 X36.248 Y106.256 E15.8175
G1 X35.924 Y106.118 E15.82921
G1 X35.702 Y105.993 E15.83768
G1 X35.435 Y105.825 E15.84818
G1 X35.164 Y105.629 E15.8593
G1 X34.958 Y105.442 E15.86855
G1 X34.724 Y105.206 E15.87961
G1 X34.361 Y104.747 E15.89907
G1 X34.197 Y104.483 E15.90941
G1 X34.07 Y104.254 E15.91812
G1 X33.941 Y103.948 E15.92916
G1 X33.837 Y103.65 E15.93966
G1 X33.765 Y103.404 E15.94818
G1 X33.704 Y103.069 E15.95951
G1 X33.666 Y102.737 E15.97062
G1 X33.649 Y102.441 E15.98049
G1 X33.65 Y68.153 E17.12091
G1 X33.098 Y68.153 E17.13927
G1 X32.644 Y68.113 E17.15443
G1 X32.204 Y67.995 E17.16958
G1 X31.792 Y67.801 E17.18473
G1 X31.569 Y67.656 E17.19357
G1 X30.839 Y67.125 E17.2236
G1 X30.495 Y66.825 E17.23878
G1 X30.209 Y66.471 E17.25391
G1 X29.989 Y66.072 E17.26907
G1 X29.896 Y65.827 E17.27778
G1 X29.617 Y64.97 E17.30776
G1 X29.514 Y64.526 E17.32292
G1 X29.491 Y64.071 E17.33807
G1 X29.547 Y63.619 E17.35322
G1 X29.617 Y63.36 E17.36214
G1 X29.896 Y62.503 E17.39212
G1 X30.074 Y62.084 E17.40726
G1 X30.323 Y61.702 E17.42243
G1 X30.635 Y61.37 E17.43758
G1 X30.839 Y61.205 E17.44631
G1 X31.569 Y60.674 E17.47633
G1 X31.959 Y60.44 E17.49146
G1 X32.385 Y60.277 E17.50663
G1 X32.832 Y60.191 E17.52177
G1 X33.098 Y60.177 E17.53063
G1 X33.65 Y60.177 E17.54899
G1 X33.65 Y49.231 E17.91305
G1 X33.668 Y48.928 E17.92315
G1 X33.704 Y48.621 E17.93343
G1 X33.769 Y48.273 E17.94521
G1 X33.838 Y48.043 E17.95319
G1 X33.943 Y47.744 E17.96373
G1 X34.08 Y47.422 E17.97537
G1 X34.197 Y47.213 E17.98334
G1 X34.361 Y46.949 E17.99368
G1 X34.72 Y46.494 E18.01295
G1 X34.955 Y46.256 E18.02408
G1 X35.169 Y46.062 E18.03368
G0 F6000 X35.423 Y46.371
G1 F1200 X35.66 Y46.201 E18.04338
G1 X35.922 Y46.038 E18.05365
G1 X36.12 Y45.928 E18.06118
G1 X36.377 Y45.82 E18.07045
G1 X36.677 Y45.715 E18.08102
G1 X36.89 Y45.652 E18.08841
G1 X37.175 Y45.6 E18.09805
G1 X37.509 Y45.562 E18.10923
G1 X37.758 Y45.548 E18.11752
G1 X104.25 Y45.548 E20.32906
G1 X104.5 Y45.562 E20.33738
G1 X104.823 Y45.599 E20.3482
G1 X105.127 Y45.656 E20.35848
G1 X105.324 Y45.715 E20.36532
G1 X105.625 Y45.821 E20.37594
G1 X105.896 Y45.937 E20.38574
G1 X106.073 Y46.036 E20.39249
G1 X106.337 Y46.2 E20.40283
G1 X106.725 Y46.507 E20.41928
G1 X106.961 Y46.741 E20.43033
G1 X107.132 Y46.932 E20.43886
G1 X107.287 Y47.147 E20.44768
G1 X107.455 Y47.414 E20.45817
G1 X107.571 Y47.622 E20.46609
G1 X107.68 Y47.881 E20.47544
G1 X107.791 Y48.199 E20.48664
G1 X107.902 Y48.692 E20.50345
G1 X107.937 Y49.022 E20.51448
G1 X107.949 Y49.254 E20.52221
G1 X107.948 Y102.461 E22.29188
G1 X107.933 Y102.713 E22.30028
G1 X107.897 Y103.025 E22.31073
G1 X107.841 Y103.327 E22.32094
G1 X107.784 Y103.518 E22.32757
G1 X107.681 Y103.813 E22.33796
G1 X107.562 Y104.092 E22.34805
G1 X107.457 Y104.278 E22.35516
G1 X107.288 Y104.547 E22.36572
G1 X107.131 Y104.766 E22.37468
G1 X106.969 Y104.948 E22.38279
G1 X106.75 Y105.167 E22.39309
G1 X106.565 Y105.331 E22.40131
G1 X106.35 Y105.486 E22.41013
G1 X106.083 Y105.654 E22.42062
G1 X105.875 Y105.77 E22.42854
G1 X105.616 Y105.879 E22.43789
G1 X105.298 Y105.99 E22.44909
G1 X104.803 Y106.101 E22.46596
G1 X104.47 Y106.136 E22.4771
G1 X104.24 Y106.148 E22.48476
G1 X37.736 Y106.147 E24.69669
G1 X37.484 Y106.132 E24.70509
G1 X37.172 Y106.096 E24.71553
G1 X36.87 Y106.04 E24.72575
G1 X36.677 Y105.982 E24.73245
G1 X36.38 Y105.878 E24.74292
G1 X36.103 Y105.76 E24.75293
G1 X35.915 Y105.654 E24.76011
G1 X35.648 Y105.486 E24.7706
G1 X35.417 Y105.318 E24.7801
G1 X35.242 Y105.16 E24.78795
G1 X35.008 Y104.924 E24.799
G1 X34.701 Y104.536 E24.81545
G1 X34.537 Y104.272 E24.82579
G1 X34.428 Y104.075 E24.83328
G1 X34.319 Y103.816 E24.84263
G1 X34.215 Y103.518 E24.85312
G1 X34.153 Y103.307 E24.86044
G1 X34.101 Y103.023 E24.87004
G1 X34.063 Y102.691 E24.88116
G1 X34.049 Y102.441 E24.88948
G1 X34.05 Y67.747 E26.04341
G1 X34 Y67.753 E26.04509
G1 X33.098 Y67.753 E26.07509
G1 X32.681 Y67.713 E26.08902
G1 X32.279 Y67.595 E26.10295
G1 X31.804 Y67.332 E26.12101
G1 X31.074 Y66.801 E26.15104
G1 X30.76 Y66.523 E26.16499
G1 X30.504 Y66.191 E26.17893
G1 X30.276 Y65.703 E26.19684
G1 X29.997 Y64.846 E26.22682
G1 X29.906 Y64.437 E26.24076
G1 X29.894 Y64.018 E26.2547
G1 X29.997 Y63.484 E26.27279
G1 X30.276 Y62.627 E26.30276
G1 X30.443 Y62.243 E26.31669
G1 X30.68 Y61.897 E26.33064
G1 X31.074 Y61.529 E26.34857
G1 X31.804 Y60.998 E26.3786
G1 X32.165 Y60.785 E26.39254
G1 X32.559 Y60.644 E26.40645
G1 X33.098 Y60.577 E26.42452
G1 X34 Y60.577 E26.45452
G1 X34.05 Y60.582 E26.45619
G1 X34.05 Y49.231 E26.83373
G1 X34.065 Y48.975 E26.84226
G1 X34.101 Y48.668 E26.85254
G1 X34.157 Y48.37 E26.86262
G1 X34.215 Y48.175 E26.86939
G1 X34.32 Y47.876 E26.87993
G1 X34.438 Y47.601 E26.88988
G1 X34.537 Y47.424 E26.89663
G1 X34.701 Y47.16 E26.90696
G1 X35.005 Y46.775 E26.92328
G1 X35.24 Y46.537 E26.9344
G1 X35.423 Y46.371 E26.94262
G0 F6000 X35.524 Y46.818
G1 F1200 X35.871 Y46.541 E26.95739
G1 X36.133 Y46.378 E26.96765
G1 X36.509 Y46.197 E26.98153
G1 X36.809 Y46.092 E26.9921
G1 X37.221 Y45.998 E27.00616
G1 X37.555 Y45.96 E27.01734
G1 X37.758 Y45.948 E27.0241
G1 X104.25 Y45.948 E29.23564
G1 X104.455 Y45.96 E29.24247
G1 X104.778 Y45.997 E29.25328
G1 X105.03 Y46.044 E29.26181
G1 X105.191 Y46.092 E29.26739
G1 X105.492 Y46.198 E29.27801
G1 X105.862 Y46.376 E29.29166
G1 X106.126 Y46.54 E29.302
G1 X106.443 Y46.791 E29.31545
G1 X106.679 Y47.025 E29.3265
G1 X106.949 Y47.36 E29.34081
G1 X107.117 Y47.627 E29.35131
G1 X107.302 Y48.013 E29.36554
G1 X107.413 Y48.331 E29.37674
G1 X107.504 Y48.734 E29.39049
G1 X107.539 Y49.064 E29.40152
G1 X107.549 Y49.254 E29.40785
G1 X107.548 Y102.461 E31.17752
G1 X107.536 Y102.667 E31.18439
G1 X107.5 Y102.979 E31.19483
G1 X107.453 Y103.23 E31.20333
G1 X107.406 Y103.386 E31.20875
G1 X107.303 Y103.681 E31.21914
G1 X107.204 Y103.913 E31.22753
G1 X107.118 Y104.066 E31.23337
G1 X106.949 Y104.335 E31.24393
G1 X106.686 Y104.665 E31.25797
G1 X106.467 Y104.884 E31.26827
G1 X106.137 Y105.148 E31.28232
G1 X105.87 Y105.316 E31.29282
G1 X105.484 Y105.501 E31.30705
G1 X105.166 Y105.612 E31.31825
G1 X104.761 Y105.703 E31.33206
G1 X104.428 Y105.738 E31.3432
G1 X104.24 Y105.748 E31.34946
G1 X37.736 Y105.747 E33.56139
G1 X37.53 Y105.735 E33.56825
G1 X37.218 Y105.699 E33.5787
G1 X36.967 Y105.652 E33.58719
G1 X36.809 Y105.605 E33.59268
G1 X36.512 Y105.501 E33.60314
G1 X36.282 Y105.402 E33.61147
G1 X36.128 Y105.316 E33.61734
G1 X35.861 Y105.148 E33.62783
G1 X35.526 Y104.878 E33.64214
G1 X35.292 Y104.642 E33.65319
G1 X35.041 Y104.325 E33.66664
G1 X34.877 Y104.061 E33.67698
G1 X34.697 Y103.684 E33.69087
G1 X34.593 Y103.386 E33.70137
G1 X34.499 Y102.978 E33.7153
G1 X34.461 Y102.646 E33.72641
G1 X34.449 Y102.441 E33.73324
G1 X34.45 Y67.289 E34.9024
G1 X34.37 Y67.315 E34.9052
G1 X34 Y67.353 E34.91757
G1 X33.098 Y67.353 E34.94757
G1 X32.721 Y67.313 E34.96018
G1 X32.361 Y67.195 E34.97278
G1 X32.039 Y67.009 E34.98515
G1 X31.309 Y66.478 E35.01517
G1 X31.028 Y66.224 E35.02777
G1 X30.806 Y65.917 E35.04037
G1 X30.656 Y65.579 E35.05267
G1 X30.377 Y64.722 E35.08265
G1 X30.299 Y64.352 E35.09523
G1 X30.299 Y63.973 E35.10783
G1 X30.377 Y63.608 E35.12025
G1 X30.656 Y62.751 E35.15022
G1 X30.811 Y62.405 E35.16283
G1 X31.035 Y62.099 E35.17545
G1 X31.309 Y61.852 E35.18771
G1 X32.039 Y61.321 E35.21774
G1 X32.367 Y61.132 E35.23033
G1 X32.728 Y61.015 E35.24295
G1 X33.098 Y60.977 E35.25532
G1 X34 Y60.977 E35.28532
G1 X34.377 Y61.017 E35.29793
G1 X34.45 Y61.041 E35.30049
G1 X34.45 Y49.231 E35.69329
G1 X34.462 Y49.021 E35.70029
G1 X34.498 Y48.714 E35.71057
G1 X34.545 Y48.467 E35.71893
G1 X34.593 Y48.308 E35.72445
G1 X34.698 Y48.009 E35.73499
G1 X34.877 Y47.635 E35.74878
G1 X35.041 Y47.371 E35.75912
G1 X35.289 Y47.056 E35.77246
G1 X35.524 Y46.818 E35.78358
G0 F6000 X35.809 Y47.099
G1 F1200 X36.082 Y46.88 E35.79522
G1 X36.344 Y46.717 E35.80548
G1 X36.642 Y46.575 E35.81646
G1 X36.942 Y46.47 E35.82703
G1 X37.266 Y46.395 E35.8381
G1 X37.6 Y46.357 E35.84928
G1 X37.758 Y46.348 E35.85454
G1 X104.25 Y46.348 E38.06607
G1 X104.409 Y46.357 E38.07137
G1 X104.732 Y46.394 E38.08218
G1 X105.058 Y46.469 E38.09331
G1 X105.359 Y46.575 E38.10392
G1 X105.651 Y46.716 E38.11471
G1 X105.915 Y46.88 E38.12505
G1 X106.162 Y47.075 E38.13551
G1 X106.398 Y47.309 E38.14657
G1 X106.61 Y47.573 E38.15783
G1 X106.778 Y47.84 E38.16832
G1 X106.925 Y48.145 E38.17958
G1 X107.036 Y48.463 E38.19078
G1 X107.106 Y48.776 E38.20145
G1 X107.141 Y49.106 E38.21249
G1 X107.149 Y49.254 E38.21742
G1 X107.148 Y102.461 E39.98709
G1 X107.139 Y102.621 E39.99242
G1 X107.103 Y102.933 E40.00287
G1 X107.029 Y103.254 E40.01382
G1 X106.926 Y103.549 E40.02421
G1 X106.779 Y103.853 E40.03545
G1 X106.61 Y104.122 E40.04601
G1 X106.403 Y104.382 E40.05707
G1 X106.184 Y104.601 E40.06737
G1 X105.924 Y104.809 E40.07844
G1 X105.657 Y104.977 E40.08893
G1 X105.352 Y105.124 E40.10019
G1 X105.034 Y105.235 E40.1114
G1 X104.719 Y105.305 E40.12213
G1 X104.386 Y105.34 E40.13327
G1 X104.24 Y105.348 E40.13813
G1 X37.736 Y105.347 E42.35006
G1 X37.576 Y105.338 E42.35539
G1 X37.264 Y105.302 E42.36584
G1 X36.941 Y105.227 E42.37687
G1 X36.644 Y105.123 E42.38733
G1 X36.341 Y104.977 E42.39852
G1 X36.074 Y104.809 E42.40901
G1 X35.81 Y104.597 E42.42027
G1 X35.576 Y104.361 E42.43133
G1 X35.381 Y104.114 E42.44179
G1 X35.217 Y103.85 E42.45213
G1 X35.074 Y103.552 E42.46312
G1 X34.97 Y103.254 E42.47362
G1 X34.896 Y102.932 E42.48461
G1 X34.858 Y102.6 E42.49573
G1 X34.849 Y102.441 E42.50102
G1 X34.85 Y66.666 E43.6909
G1 X34.824 Y66.685 E43.69197
G1 X34.532 Y66.848 E43.7031
G1 X34.21 Y66.937 E43.71421
G1 X34 Y66.953 E43.72121
G1 X33.098 Y66.953 E43.75121
G1 X32.766 Y66.913 E43.76234
G1 X32.454 Y66.796 E43.77342
G1 X32.274 Y66.685 E43.78045
G1 X31.544 Y66.154 E43.81048
G1 X31.3 Y65.927 E43.82156
G1 X31.116 Y65.648 E43.83268
G1 X31.037 Y65.455 E43.83961
G1 X30.758 Y64.598 E43.86959
G1 X30.693 Y64.271 E43.88068
G1 X30.708 Y63.937 E43.8918
G1 X30.758 Y63.732 E43.89882
G1 X31.037 Y62.875 E43.92879
G1 X31.177 Y62.572 E43.93989
G1 X31.386 Y62.31 E43.95104
G1 X31.544 Y62.176 E43.95793
G1 X32.274 Y61.645 E43.98796
G1 X32.566 Y61.482 E43.99908
G1 X32.888 Y61.393 E44.01019
G1 X33.098 Y61.377 E44.01719
G1 X34 Y61.377 E44.0472
G1 X34.332 Y61.417 E44.05832
G1 X34.644 Y61.534 E44.0694
G1 X34.85 Y61.664 E44.0775
G1 X34.85 Y49.231 E44.49103
G1 X34.86 Y49.068 E44.49646
G1 X34.896 Y48.761 E44.50674
G1 X34.97 Y48.44 E44.51769
G1 X35.075 Y48.141 E44.52823
G1 X35.217 Y47.846 E44.53912
G1 X35.381 Y47.582 E44.54946
